icons/bc.svg

<svg xmlns="http://www.w3.org/2000/svg" viewBox="0 0 24 24"><path fill="#2f89ab" d="M19 3H5c-1.1 0-2 .9-2 2v14c0 1.1.9 2 2 2h14c1.1 0 2-.9 2-2V5c0-1.1-.9-2-2-2m-6 4.1L14.1 6l1.4 1.4L16.9 6 18 7.1l-1.4 1.4L18 9.9 16.9 11l-1.4-1.4-1.4 1.4L13 9.9l1.4-1.4zm-6.8.6h5v1.5h-5zm5.3 8.3h-2v2H8v-2H6v-1.5h2v-2h1.5v2h2zm6.5 1.2h-5v-1.5h5zm0-2.4h-5v-1.5h5z" data-iconColor="BC"/></svg>

<!--
  - The MIT License (MIT)
  -
  - Copyright (c) 2015-2024 Elior "Mallowigi" Boukhobza
  -
  - Permission is hereby granted, free of charge, to any person obtaining a copy
  - of this software and associated documentation files (the "Software"), to deal
  - in the Software without restriction, including without limitation the rights
  - to use, copy, modify, merge, publish, distribute, sublicense, and/or sell
  - copies of the Software, and to permit persons to whom the Software is
  - furnished to do so, subject to the following conditions:
  -
  - The above copyright notice and this permission notice shall be included in all
  - copies or substantial portions of the Software.
  -
  - THE SOFTWARE IS PROVIDED "AS IS", WITHOUT WARRANTY OF ANY KIND, EXPRESS OR
  - IMPLIED, INCLUDING BUT NOT LIMITED TO THE WARRANTIES OF MERCHANTABILITY,
  - FITNESS FOR A PARTICULAR PURPOSE AND NONINFRINGEMENT. IN NO EVENT SHALL THE
  - AUTHORS OR COPYRIGHT HOLDERS BE LIABLE FOR ANY CLAIM, DAMAGES OR OTHER
  - LIABILITY, WHETHER IN AN ACTION OF CONTRACT, TORT OR OTHERWISE, ARISING FROM,
  - OUT OF OR IN CONNECTION WITH THE SOFTWARE OR THE USE OR OTHER DEALINGS IN THE
  - SOFTWARE.
  -
  -->

<svg xmlns="http://www.w3.org/2000/svg" version="1.1" width="16px" height="16px"
     viewBox="0 0 24 24">
  <path fill="#2f89ab" data-iconColor="BC"
        d="M19 3H5C3.9 3 3 3.9 3 5V19C3 20.1 3.9 21 5 21H19C20.1 21 21 20.1 21 19V5C21 3.9 20.1 3 19 3M13 7.1L14.1 6L15.5 7.4L16.9 6L18 7.1L16.6 8.5L18 9.9L16.9 11L15.5 9.6L14.1 11L13 9.9L14.4 8.5L13 7.1M6.2 7.7H11.2V9.2H6.2V7.7M11.5 16H9.5V18H8V16H6V14.5H8V12.5H9.5V14.5H11.5V16M18 17.2H13V15.7H18V17.2M18 14.8H13V13.3H18V14.8Z"/>
</svg>
